svgs/sharp-light/litecoin-sign.svg

<svg xmlns="http://www.w3.org/2000/svg" viewBox="0 0 384 512"><!--! Font Awesome Pro 6.6.0 by @fontawesome - https://fontawesome.com License - https://fontawesome.com/license (Commercial License) Copyright 2024 Fonticons, Inc. --><path d="M96 48l0-16L64 32l0 16 0 179.5-51.9 13-15.5 3.9 7.8 31 15.5-3.9 44.1-11L64 464l0 16 16 0 288 0 16 0 0-32-16 0L96 448l0-195.5 179.9-45 15.5-3.9-7.8-31-15.5 3.9L96 219.5 96 48z"/></svg>

<svg xmlns="http://www.w3.org/2000/svg" viewBox="0 0 384 512"><!--! Font Awesome Pro 6.4.0 by @fontawesome - https://fontawesome.com License - https://fontawesome.com/license (Commercial License) Copyright 2023 Fonticons, Inc. --><path d="M96 48V32H64V48 227.5l-51.9 13-15.5 3.9 7.8 31 15.5-3.9 44.1-11V464v16H80 368h16V448H368 96V252.5l179.9-45 15.5-3.9-7.8-31-15.5 3.9L96 219.5V48z"/></svg>
